!!!ONB: MCCC : IJB0015_01 : Extracted Monophonic Melody
!!!COM: Brahms, Johannes
!!!OPR: Clarinet Sonata No.1
!!!OMV: 1
!!!SCT: Op.120 No.1
!!!ODT: 1894///
**kern
*staff1
=1
*clefG2
*k[b-e-a-d-]
*A-:
*M3/4
4cc
4ff
4ee-
=2
4.dd-
8cc
8ee-
8dd-
=3
8b-
8dd-
8cc
8a-
8b-
8f
=4
2a-
4g-
=5
2cc
4a-
=6
2f
4aa-
=7
4.ff
8dd-
8ff
8dd-
=8
2b-
4ddd-
=9
2ee
4gg
=10
2a-
4ff
=11
2g
12b-
12a-
12g
=12
4g
4r
4r
=13
4ee
4aa-
4gg
=14
4cc
4ff
4ee-
=15
4.dd-
8cc
8ee-
8dd-
=16
4cc
4r
4r
=17
8E
8G
8c
8e
8a-
8g
=18
8c
8f
8a-
8cc
8ff
8ee-
=19
4.dd-
8cc
8ff
8ee-
=20
4.dd-
8cc
8ee-
8dd-
=21
4.b-
8dd-
4cc[
=22
8cc]
8a
4.b-
8f
=23
2a-
4r
=24
2g
4r
=25
4f
4r
4r
=26
8ff
8dd-
8ff
8dd-
8a-
8f
=27
4d-
4r
4r
=28
12bb-
12aa-
12gg-
12bb-
12gg-
12dd-
12b-
12g-
12d-
=29
12r
12c
12e
12g
12cc
12ee
4gg
=30
12r
12A-
12d-
12f
12a-
12dd-
4ff
=31
4.g
8cc-
8dd
8gg
=32
4ee
12r
12dd-
12cc
12ee-
12dd-
12cc
=33
12r
12aa-
12gg-
12bb-
12aa-
12gg-
12dd-
12b-
12g-
=34
12r
12e-
12g-
12cc
12ee-
12gg-
4bb-
=35
12r
12c
12e-
12g-
12cc
12ee-
4gg-
=36
2.a
=37
4.b-[
8b-]
8a-[
8a-]
=38
4FF
4a-
4a-
=39
4g-
4g-
4f
=40
4r
4e-
4b-
=41
2.dd-
=42
4r
4e-
4b-
=43
2dd-
4dd-
=44
4ff
4ee-
4dd-[
=45
4dd-]
4cc
4ee-
=46
4a-
2aa-
=47
2gg-
4ff[
=48
8ff]
8ee-
8dd-
8b-
8g-
8f
=49
4e-
4a-
4f[
=50
8f]
8e-
8d-
8B-
8G-
8F
=51
4E-
4r
4A-
=52
4A-
2F
=53
8D
8E-
8.F
16D
4E-
=54
2.r
=55
8c
8d
8.e-
16c
4B-
=56
2.r
=57
8d
8e-
8.f
16d
4e-
=58
8g
8b-
8.a-
16f
4g
=59
8cc
8dd
8.ee-
16cc
4b-
=60
4r
4r
8ddd
8ccc
=61
8.bb-
16aa-
2gg[
=62
16gg]
16aa-
16ff
16dd
16cc-
16a-
16f
16d
20G
20c
20e-
20g
20cc
=63
2.ee-[
=64
16ee-]
16dd
16cc
16a-
16e-
16c
16A-
16F
28G
28c-
28d
28g
28cc-
28dd
28gg
=65
2.ccc[
=66
16ccc]
16ddd-
16bb-
16gg
16ee
16dd-
16b-
16g
24c
24e
24g
24cc
24ee
24gg
=67
4cc
4r
4r
=68
2.r
=69
4aa-
4gg
4ff
=70
4ee-
4dd
4gg
=71
4ff
4ee-
4dd
=72
4cc
8aa-
8ff
8gg
8ee-
=73
8ff
8dd
8ee-
8cc
8dd
8cc-
=74
8g
8e-
8f
8d
8e-
8c
=75
8d
8c-
4r
8G
8E-
=76
4r
8F
8D
4r
=77
4G
8d
8f
8g
8b-
=78
4b-
2cc
=79
16ddd
16ccc
16aa-
16ff
4dd[
16dd]
16cc
16a-
16f
=80
4d
4e-
4d
=81
4c
4r
4r
=82
4r
16ccc
16bb-
16gg
16ee
4cc
=83
4r
16ddd
16ccc
16aa
16gg-
16bb-
16aa
16gg-
16cc
=84
4cc-
4r
4r
=85
2.r
=86
16ddd
16ccc
16aa-
16ff
4dd[
16dd]
16cc
16a-
16f
=87
8d
8a-
8g
8f
8e-
8d
=88
4r
4c
4r
=89
4r
4c
4r
=90
4CC
4e-
4e-
=91
4d-
4d-
4c
=92
4r
4b-
4ff
=93
4.aa-
8gg
8bb-
8aa-
=94
4cc
4b-
4ee
=95
4.aa-
8gg
8bb-
8aa-
=96
2.E-[
=97
4E-]
4A-
4B-
=98
4c
4f
4e-
=99
4.d-
8c
8e-
8d-
=100
*k[f#c#g#d#]
*E:
4B
2b
=101
2a
4g#
=102
4r
4f#
4cc#
=103
4.ee
8dd#
8ff#
8ee
=104
4r
4r
4cc#
=105
4.ee
8dd#
8ff#
8ee
=106
4r
4r
4dd#[
=107
4.dd#]
8cc#
8ee
8dd#
=108
2.cc#[
=109
4.cc#]
8b
8dd#
8cc#
=110
2b[
8b]
8a
=111
8cc#
8b
4.a
8g#
=112
8b
8a
8g#
8f#
8g#
8f#
=113
8e
8d#
4r
8r
8f#
=114
8b
8a
8g#
8f#
8g#
8f#
=115
8e
8d#
4r
4r
=116
4ee
4ee
8dd#
8cc#
=117
2.r
=118
4bb
4bb
8aa
8gg#
=119
2.r
=120
4r
8r
16r
16cc#
4dd#
=121
4r
8r
16r
16cc#
4dd#
=122
2.r
=123
4r
4r
8dd#
8cc#
=124
8.b#
16a
2g#
=125
8ccc#
8bb
8aa
8gg#
4cc#
=126
8ff#
8ee
8dd
16AA
16cc#
8b
8a
=127
8g#
16DD
16f#
16f#
16e
16e
16d
16d
16c#
16c#
16B
=128
4c#
4d#[
4d#]
=129
4ff#
4.gg#
8cc#
=130
4ff#
4ccc#
8cc#
8c#
=131
2c#
4r
=132
8ff#
8aa
8gg#
8ee
8ff#
8cc#
=133
2ee
4dd
=134
4r
2e
=135
4e
2d
=136
*k[b-e-a-d-]
*A-:
2.d-
=137
2.c-
=138
2c
4A-
=139
4F[
12F]
12A-
12d-
12f
12a-
12aa-
=140
4.ff
8dd-
8ff
8dd-
=141
4b-[
12b-]
12g-
12b-
12dd-
12bb-
12ddd-
=142
2ee
4gg
=143
2a-
4ff
=144
2g
12b-
12a-
12g
=145
4g
4r
4r
=146
8r
8eee-
8gg-
8ee-
4g-
=147
8r
8aa
8b-
8gg
8b-
8gg-
=148
8b-
8aa
8b-
8gg
4b-
=149
8r
8ff
8g
8ee
8g
8ee-
=150
8g
8ff
8g
8ee
8f
8dd
=151
4e
2cc
=152
2.cc
=153
4AA
4cc
4cc
=154
4b-
4b-
4a
=155
4r
4g
4dd
=156
2.ff
=157
4r
4g
4dd
=158
2ff
4ff
=159
4aa
4gg
4ff[
=160
4ff]
4ee
4gg
=161
4cc
2ccc
=162
2bb-
4aa[
=163
8aa]
8gg
8ff
8dd
8b-
8a
=164
4g
4cc
4a[
=165
8a]
8g
8f
8d-
8B-
8A-
=166
4G
4r
4c
=167
4c
2A-
=168
8G
16A-
16c
16B-
8c
16G
4A-
=169
16c
16A-
16e-
16G
16d-
8F
16B-
4c
=170
16f
16dd-
16g
16dd-
8.a-
16f
4e-
=171
8d-
8c
8.B-
16A-
4d-
=172
8g
8a-
8.b-
16g
4a-
=173
8cc
8ee-
8.dd-
16b-
4cc
=174
8ff
8gg
8.aa-
16ff
4ee-
=175
4r
4r
8gg
8ff
=176
8.ee-
16dd-
2cc[
=177
16cc]
16dd-
16b-
16g
16e
16d-
16B-
16G
24A-
24c
24f
24a-
24cc
24ff
=178
2.aa-[
=179
16aa-]
16gg
16ff
16dd-
16a-
16f
16d-
16B-
24G
24c
24e
24g
24cc
24ee
=180
2.ff[
=181
16ff]
16gg
16ee-
16cc
16a
16g
16e-
16c
24F
24A
24c
24f
24a
24cc
=182
4ff
4r
4r
=183
2.r
=184
4ddd-
4ccc
4bb-
=185
4aa-
4gg
4ccc
=186
4bb-
4aa-
4gg
=187
4ff
8ddd-
8bb-
8ccc
8aa-
=188
8bb-
8gg
8aa-
8ff
8gg
8ee
=189
8cc
8a-
8b-
8g
8a-
8f
=190
8g
8e
4r
8c
8A-
=191
4r
8B-
8G
4r
=192
4c
8g
8b-
8cc
8ee-
=193
4ee-
2ff
=194
16gg
16ff
16dd-
16b-
4g[
16g]
16f
16d-
16B-
=195
4G
4a-
4g
=196
2.r
=197
4r
16ff
16ee-
16cc
16a
4f
=198
4r
16gg
16ff
16dd
16cc-
4g
=199
16ccc
16bb-
16gg
16ee
4cc[
16cc]
16b-
16g
16e
=200
4c
4bb-
4aa-
=201
4gg[
16gg]
16ff
16dd
16cc-
16g
16f
16d
16c-
=202
4G
4r
4r
=203
4C
2aa-
=204
4FFF
2f
=205
4FFF
2f
=206
2c
4A-
=207
2F
4A
=208
4.f
8d
8f
8d
=209
4B-[
12B-]
12d-
12f
12b-
12dd-
12ff
=210
2.bb-[
=211
12bb-]
12aa-
12gg-
12bb-
12gg-
12ff
12ee-
12dd-
12cc
=212
2.ff[
=213
12ff]
12ee-
12dd-
12ff
12dd-
12cc
12b-
12a-
12g
=214
2cc[
12cc]
12dd-
12ee-
=215
2cc[
12cc]
12ee
12gg
=216
2cc[
12cc]
12ff
12ccc
=217
4bb-
12aa-
12ff
12cc
8gg
8bb-
=218
12aa-
12ff
12cc
8cc-
8b-
8g
8a-
=219
8f
8cc
4cc[
12cc]
12dd-
12ee-
=220
2cc
4cc[
=221
12cc]
12ee
12gg
4cc
12cc
12ff
12cc
=222
4cc
12cc
12dd
12ee-
4ee-
=223
12dd
12gg
12dd
4ff
12gg
12ccc
12gg
=224
8bb-
8aa-
8gg
8ff
8dd-
8e
=225
8b-
8a-
4r
8g
8f
=226
4r
4d-
4r
=227
4F
4c[
4c]
=228
4.c
8c
8c[
8c]
=229
2.c
=230
2.c
=231
4cc
4ff
4ee-
=232
4.dd-
8cc
8ee-
8dd-
=233
2.cc
=234
2.cc
=235
2.cc[
=236
4cc]
4r
4r
==
*-
